assets/img/icon_backoffice.svg

<svg width="76" height="76" viewBox="0 0 76 76" fill="none" xmlns="http://www.w3.org/2000/svg">
<path d="M66.8095 40.6017C66.9017 39.6692 66.9454 38.8237 66.9454 38C66.9454 37.1762 66.9017 36.3308 66.8095 35.398L73.8579 27.4495C74.4938 26.7324 74.5995 25.6889 74.1202 24.859L67.4405 13.2895C66.9614 12.4595 66.0052 12.0297 65.0658 12.2215L54.6488 14.3532C53.1972 13.3239 51.6864 12.4423 50.137 11.7208L46.7951 1.53277C46.4954 0.618242 45.642 0 44.6797 0H31.3204C30.3586 0 29.5057 0.617352 29.2053 1.53084L25.8538 11.7206C24.3131 12.4392 22.8048 13.3208 21.3508 14.3529L10.9341 12.2213C9.99479 12.0288 9.03855 12.4594 8.5594 13.2893L1.87971 24.8588C1.40041 25.6887 1.50609 26.7324 2.142 27.4494L9.19041 35.3979C9.09837 36.3307 9.05473 37.1762 9.05473 38C9.05473 38.8238 9.09837 39.6692 9.19055 40.6018L2.142 48.5503C1.50609 49.2674 1.40041 50.311 1.87971 51.1409L8.5594 62.7104C9.03855 63.5405 9.99538 63.9705 10.934 63.7784L21.3511 61.647C22.8021 62.6758 24.3129 63.5574 25.862 64.2789L29.1604 74.3325C29.5767 75.9387 31.1082 76 31.3134 76H44.6797C45.09 76 46.3501 75.8214 46.7948 74.4692L50.1462 64.2791C51.6878 63.56 53.1956 62.6788 54.6492 61.6471L65.066 63.7785C66.0049 63.9705 66.9614 63.5405 67.4405 62.7105L74.1202 51.141C74.5995 50.3111 74.4938 49.2676 73.8579 48.5505L66.8095 40.6017ZM30.0784 39.8526L36.7581 44.3058C37.5059 44.8042 38.4804 44.8042 39.2282 44.3058L45.9079 39.8526C46.5273 39.4397 46.8995 38.7444 46.8995 38V25.2066C51.041 28.0795 53.5792 32.8063 53.5792 38C53.5792 46.5941 46.5873 53.5859 37.9932 53.5859C29.3991 53.5859 22.4073 46.5941 22.4073 38C22.4073 32.8065 24.9454 28.0796 29.087 25.2066V38C29.0868 38.7444 29.4588 39.4397 30.0784 39.8526V39.8526ZM33.5399 71.5469V57.5396C34.9727 57.866 36.463 58.0391 37.9931 58.0391C39.5232 58.0391 41.0135 57.866 42.4462 57.5396V71.5469H33.5399ZM64.3866 59.094L55.244 57.2232C54.4916 56.8321 53.5613 56.897 52.8632 57.4318C51.1406 58.7514 49.3288 59.8145 47.4782 60.5913C47.2655 60.6807 47.0715 60.8024 46.8993 60.9486V55.9473C53.4919 52.6625 58.0321 45.852 58.0321 37.9999C58.0321 33.9373 56.8176 30.0222 54.5201 26.6778C52.2788 23.4153 49.1634 20.9071 45.5104 19.4239C44.8239 19.1453 44.044 19.2264 43.4293 19.6401C42.8148 20.0539 42.4462 20.7462 42.4462 21.4871V36.8083L37.9931 39.7771L33.5399 36.8083V21.4871C33.5399 20.7462 33.1715 20.0539 32.5568 19.6401C31.9423 19.2262 31.1623 19.1455 30.4757 19.4239C26.8227 20.9071 23.7073 23.4154 21.466 26.6778C19.1684 30.0222 17.954 33.9374 17.954 37.9999C17.954 45.8519 22.4943 52.6625 29.0868 55.9473V60.9306C28.9203 60.7927 28.7344 60.6766 28.5308 60.5913C26.667 59.8089 24.8522 58.7459 23.1367 57.4318C22.4387 56.897 21.5085 56.8321 20.7561 57.2232L11.6135 59.094L6.53857 50.304L12.7565 43.2922C13.4503 42.8328 13.8454 42.009 13.7351 41.1516C13.58 39.9472 13.5079 38.9458 13.5079 38C13.5079 37.0542 13.58 36.0525 13.7351 34.8478C13.8454 33.9901 13.4501 33.1663 12.756 32.7069L6.53857 25.6956L11.6133 16.9055L20.7559 18.7765C21.5083 19.1676 22.4387 19.1026 23.1368 18.5679C24.8605 17.2472 26.6722 16.1843 28.5216 15.4083C29.1164 15.1587 29.5737 14.6635 29.7751 14.0508L32.9319 4.45312H43.0668L46.2146 14.0493C46.4159 14.6628 46.8733 15.1587 47.4687 15.4084C49.3324 16.1904 51.1473 17.2535 52.8632 18.568C53.5613 19.1027 54.4914 19.168 55.2442 18.7766L64.3867 16.9057L69.4615 25.6957L63.2444 32.7069C62.5501 33.1663 62.1548 33.9903 62.2651 34.8479C62.4201 36.0525 62.4922 37.0542 62.4922 38C62.4922 38.9458 62.4201 39.9472 62.265 41.1516C62.1547 42.0091 62.5497 42.833 63.2438 43.2924L69.4615 50.3041L64.3866 59.094Z" fill="url(#paint0_linear)"/>
<defs>
<linearGradient id="paint0_linear" x1="0.306645" y1="38" x2="74.4186" y2="38" gradientUnits="userSpaceOnUse">
<stop stop-color="#3494E6"/>
<stop offset="1" stop-color="#EC6EAD"/>
</linearGradient>
</defs>
</svg>

<svg width="76" height="76" fill="none" xmlns="http://www.w3.org/2000/svg"><path d="M66.81 40.602c.092-.933.135-1.778.135-2.602 0-.824-.043-1.67-.135-2.602l7.048-7.949c.636-.717.742-1.76.262-2.59l-6.68-11.57a2.227 2.227 0 00-2.374-1.067l-10.417 2.131a28.917 28.917 0 00-4.512-2.632L46.795 1.533A2.226 2.226 0 0044.68 0H31.32c-.961 0-1.814.617-2.115 1.53l-3.351 10.19c-1.54.72-3.05 1.6-4.503 2.633L10.934 12.22A2.226 2.226 0 008.56 13.29L1.88 24.86c-.479.83-.373 1.873.263 2.59l7.048 7.949A26.23 26.23 0 009.055 38c0 .824.043 1.67.136 2.602L2.142 48.55a2.226 2.226 0 00-.262 2.59l6.68 11.57c.479.83 1.435 1.26 2.374 1.068l10.417-2.131a28.931 28.931 0 004.511 2.632l3.298 10.053C29.577 75.94 31.108 76 31.313 76H44.68c.41 0 1.67-.179 2.115-1.53l3.351-10.19c1.542-.72 3.05-1.601 4.503-2.633l10.417 2.132a2.226 2.226 0 002.374-1.069l6.68-11.569c.48-.83.374-1.873-.262-2.59l-7.049-7.95zm-36.732-.75l6.68 4.454a2.227 2.227 0 002.47 0l6.68-4.453c.62-.413.992-1.109.992-1.853V25.207A15.52 15.52 0 0153.58 38c0 8.594-6.993 15.586-15.587 15.586S22.407 46.594 22.407 38a15.52 15.52 0 016.68-12.793V38c0 .744.372 1.44.991 1.853zm3.462 31.695V57.54c1.433.326 2.923.5 4.453.5 1.53 0 3.02-.174 4.453-.5v14.007H33.54zm30.847-12.453l-9.143-1.87a2.227 2.227 0 00-2.38.208c-1.723 1.32-3.535 2.383-5.386 3.16a2.23 2.23 0 00-.579.357v-5.002C53.492 52.662 58.032 45.852 58.032 38a19.91 19.91 0 00-3.512-11.322 20.062 20.062 0 00-9.01-7.254 2.227 2.227 0 00-3.064 2.063v15.321l-4.453 2.97-4.453-2.97v-15.32a2.226 2.226 0 00-3.064-2.064 20.062 20.062 0 00-9.01 7.254A19.91 19.91 0 0017.954 38c0 7.852 4.54 14.663 11.133 17.947v4.984a2.214 2.214 0 00-.556-.34c-1.864-.782-3.679-1.845-5.394-3.16a2.227 2.227 0 00-2.38-.208l-9.144 1.871-5.074-8.79 6.218-7.012a2.227 2.227 0 00.978-2.14c-.155-1.205-.227-2.206-.227-3.152 0-.946.072-1.947.227-3.152a2.227 2.227 0 00-.979-2.141l-6.217-7.011 5.074-8.79 9.143 1.87a2.228 2.228 0 002.38-.208c1.724-1.32 3.536-2.384 5.386-3.16a2.226 2.226 0 001.253-1.357l3.157-9.598h10.135l3.148 9.596c.2.614.658 1.11 1.254 1.36 1.863.781 3.678 1.844 5.394 3.159.698.535 1.628.6 2.381.209l9.143-1.871 5.075 8.79-6.218 7.01a2.227 2.227 0 00-.979 2.142c.155 1.205.227 2.206.227 3.152 0 .946-.072 1.947-.227 3.152-.11.857.285 1.681.979 2.14l6.218 7.012-5.075 8.79z" fill="url(#paint0_linear)"/><defs><linearGradient id="paint0_linear" x1=".307" y1="38" x2="74.419" y2="38" gradientUnits="userSpaceOnUse"><stop stop-color="#3494E6"/><stop offset="1" stop-color="#EC6EAD"/></linearGradient></defs></svg>
